portfolio-htmlcssjs/img/icon_flow.svg

<svg fill="none" height="16" viewBox="0 0 16 16" width="16" xmlns="http://www.w3.org/2000/svg"><g fill="#fff"><path d="m8.43454 7.15642c.32526.32123.32526.84633.00001 1.16756l-4.78099 4.72192c-.51835.5119-1.39707.1447-1.39707-.5838v-9.44378c0-.72853.87872-1.09571 1.39706-.58378z"/><path d="m15.4089 7.15642c.3253.32123.3253.84633 0 1.16756l-4.781 4.72192c-.5183.5119-1.39705.1447-1.39705-.5838v-9.44378c0-.72853.87875-1.09571 1.39705-.58378z"/></g></svg>

<svg width="16" height="16" viewBox="0 0 16 16" fill="none" xmlns="http://www.w3.org/2000/svg">
<path d="M8.43454 7.15642C8.7598 7.47765 8.7598 8.00275 8.43455 8.32398L3.65356 13.0459C3.13521 13.5578 2.25649 13.1906 2.25649 12.4621L2.25649 3.01832C2.25649 2.28979 3.13521 1.92261 3.65355 2.43454L8.43454 7.15642Z" fill="white"/>
<path d="M15.4089 7.15642C15.7342 7.47765 15.7342 8.00275 15.4089 8.32398L10.6279 13.0459C10.1096 13.5578 9.23085 13.1906 9.23085 12.4621L9.23085 3.01832C9.23085 2.28979 10.1096 1.92261 10.6279 2.43454L15.4089 7.15642Z" fill="white"/>
</svg>
